X: 7366
T:Lieutenant Maguire's Jig
R:Jig
R:Pipe march
O:Scotland
M:6/8
K:Bm
f|\
B>BB d2e|f>BB f>BB|A>AA c2d|e>AA e>AA|\
B>BB d2e|f>BB f>BB|
f>ff edc|d>BB B2::\
c|\
d2e f>dd|a>dd f>dd|
d2e f>dd|e>AA ABc|\
d2e f>dd|a>dd f>dd|e2e f2e|d>BB B2::
f|\
B>BB d2e|f2e fga|A>AA c2d|e>AA e>AA|\
B>BB d2e|f2e fga|
e>ee f2e|d>BB B2::\
f|\
B>BB BfB|BaB f>BB|A>AA AeA|AfA e>AA|
B>BB BfB|BaB f>BB|f>ff edc|d>BB B2:|
